;FLAVOR:Marlin
;TIME:6211
;Filament used: 4.83203m
;Layer height: 0.28
;MINX:76.307
;MINY:94.072
;MINZ:0.28
;MAXX:139.799
;MAXY:125.928
;MAXZ:47.88
;Generated with Cura_SteamEngine 4.13.1
M140 S60
M105
M190 S60
M104 S200
M105
M109 S200
M82 ;absolute extrusion mode
; Ender 3 Custom Start G-code
G92 E0 ; Reset Extruder
G28 ; Home all axes
G1 Z2.0 F3000 ; Move Z Axis up little to prevent scratching of Heat Bed
G1 X0.1 Y20 Z0.3 F5000.0 ; Move to start position
G1 X0.1 Y200.0 Z0.3 F1500.0 E15 ; Draw the first line
G1 X0.4 Y200.0 Z0.3 F5000.0 ; Move to side a little
G1 X0.4 Y20 Z0.3 F1500.0 E30 ; Draw the second line
G92 E0 ; Reset Extruder
G1 Z2.0 F3000 ; Move Z Axis up little to prevent scratching of Heat Bed
G1 X5 Y20 Z0.3 F5000.0 ; Move over to prevent blob squish
G92 E0
G92 E0
G1 F1500 E-6.5
;LAYER_COUNT:171
;LAYER:0
M107
G0 F6000 X79.809 Y97.676 Z0.28
;TYPE:SKIRT
G1 F1500 E0
G1 F1200 X80.437 Y97.198 E0.03675
G1 X80.814 Y96.956 E0.05761
G1 X81.008 Y96.839 E0.06816
G1 X81.959 Y96.35 E0.11795
G1 X82.171 Y96.259 E0.12869
G1 X83.211 Y95.898 E0.17996
G1 X83.466 Y95.829 E0.19226
G1 X84.554 Y95.616 E0.24388
G1 X84.807 Y95.585 E0.25575
G1 X85.281 Y95.541 E0.27792
G1 X108.814 Y94.106 E1.37575
G1 X109.272 Y94.086 E1.39709
G1 X109.73 Y94.074 E1.41843
G1 X109.958 Y94.072 E1.42904
G1 X110.598 Y94.078 E1.45885
G1 X110.899 Y94.087 E1.47287
G1 X111.104 Y94.096 E1.48242
G1 X111.549 Y94.121 E1.50318
G1 X112.038 Y94.159 E1.52602
G1 X112.529 Y94.208 E1.54899
G1 X112.91 Y94.252 E1.56685
G1 X113.104 Y94.278 E1.57597
G1 X113.531 Y94.34 E1.59606
G1 X113.721 Y94.37 E1.60501
G1 X114.108 Y94.436 E1.62329
G1 X114.368 Y94.489 E1.63565
G1 X114.616 Y94.536 E1.6474
G1 X115.064 Y94.632 E1.66874
G1 X115.242 Y94.673 E1.67724
G1 X115.621 Y94.765 E1.6954
G1 X116.077 Y94.886 E1.71737
G1 X116.605 Y95.037 E1.74294
G1 X116.831 Y95.106 E1.75395
G1 X117.328 Y95.268 E1.77829
G1 X117.581 Y95.354 E1.79073
G1 X118.112 Y95.547 E1.81704
G1 X118.508 Y95.702 E1.83684
G1 X119.038 Y95.923 E1.86358
G1 X119.451 Y96.105 E1.88459
G1 X119.832 Y96.282 E1.90416
G1 X120.025 Y96.375 E1.91413
G1 X120.471 Y96.599 E1.93737
G1 X120.697 Y96.717 E1.94924
G1 X120.886 Y96.819 E1.95924
G1 X121.354 Y97.08 E1.98419
G1 X121.585 Y97.214 E1.99663
G1 X122.14 Y97.551 E2.02686
G1 X122.471 Y97.761 E2.04512
G1 X122.724 Y97.928 E2.05923
G1 X123.186 Y98.247 E2.08538
G1 X123.383 Y98.388 E2.09666
G1 X123.722 Y98.638 E2.11627
G1 X123.892 Y98.767 E2.12621
G1 X124.238 Y99.037 E2.14664
G1 X124.456 Y99.214 E2.15972
G1 X124.9 Y99.587 E2.18672
G1 X125.052 Y99.72 E2.19612
G1 X125.243 Y99.888 E2.20797
G1 X125.436 Y100.065 E2.22016
G1 X125.86 Y100.464 E2.24727
G1 X126.082 Y100.681 E2.26173
G1 X126.501 Y101.109 E2.28962
G1 X126.773 Y101.4 E2.30817
G1 X127.061 Y101.717 E2.32811
G1 X127.244 Y101.926 E2.34104
G1 X127.56 Y102.299 E2.36381
G1 X127.92 Y102.744 E2.39046
G1 X128.206 Y103.116 E2.41231
G1 X128.342 Y103.298 E2.42289
G1 X128.581 Y103.628 E2.44186
G1 X128.704 Y103.802 E2.45178
G1 X128.963 Y104.181 E2.47316
G1 X129.074 Y104.348 E2.4825
G1 X129.255 Y104.628 E2.49802
G1 X129.382 Y104.831 E2.50917
G1 X129.554 Y105.117 E2.52471
G1 X129.715 Y105.39 E2.53947
G1 X130.075 Y106.077 E2.57559
G1 X130.168 Y106.278 E2.5859
G1 X130.463 Y107.01 E2.62265
G1 X130.686 Y107.785 E2.6602
G1 X130.757 Y108.09 E2.67478
G1 X130.897 Y108.867 E2.71154
G1 X130.96 Y109.829 E2.75643
G1 X130.961 Y110.098 E2.76896
G1 X130.924 Y110.887 E2.80574
G1 X130.839 Y111.502 E2.83465
G1 X130.803 Y111.703 E2.84416
G1 X130.624 Y112.472 E2.88092
G1 X130.483 Y112.917 E2.90266
G1 X130.407 Y113.133 E2.91332
G1 X129.996 Y114.091 E2.96186
G1 X129.924 Y114.232 E2.96923
G1 X129.701 Y114.638 E2.9908
G1 X129.476 Y115.016 E3.01129
G1 X129.216 Y115.431 E3.03409
G1 X128.951 Y115.836 E3.05663
G1 X128.723 Y116.172 E3.07553
G1 X128.626 Y116.311 E3.08343
G1 X128.343 Y116.703 E3.10594
G1 X128.148 Y116.962 E3.12104
G1 X127.839 Y117.359 E3.14446
G1 X127.689 Y117.546 E3.15562
G1 X127.482 Y117.796 E3.17074
G1 X127.325 Y117.981 E3.18204
G1 X126.971 Y118.384 E3.20701
G1 X126.681 Y118.696 E3.22685
G1 X126.46 Y118.933 E3.24194
G1 X126.216 Y119.185 E3.25827
G1 X125.916 Y119.483 E3.27796
G1 X125.599 Y119.785 E3.29835
G1 X125.098 Y120.241 E3.32989
G1 X124.853 Y120.455 E3.34504
G1 X124.679 Y120.603 E3.35568
G1 X124.357 Y120.868 E3.37509
G1 X124.193 Y120.999 E3.38487
G1 X123.899 Y121.228 E3.40222
G1 X123.348 Y121.638 E3.4342
G1 X123.002 Y121.883 E3.45394
G1 X122.677 Y122.103 E3.47222
G1 X122.38 Y122.298 E3.48876
G1 X122.171 Y122.431 E3.5003
G1 X121.725 Y122.704 E3.52465
G1 X121.511 Y122.83 E3.53621
G1 X121.07 Y123.081 E3.55984
G1 X120.812 Y123.221 E3.5735
G1 X120.382 Y123.446 E3.5961
G1 X120.148 Y123.564 E3.60831
G1 X119.727 Y123.767 E3.63007
G1 X119.334 Y123.948 E3.65022
G1 X118.911 Y124.133 E3.67171
G1 X118.575 Y124.272 E3.68865
G1 X118.177 Y124.428 E3.70855
G1 X117.711 Y124.6 E3.73168
G1 X117.213 Y124.771 E3.7562
G1 X116.71 Y124.932 E3.78079
G1 X116.242 Y125.07 E3.80351
G1 X115.618 Y125.236 E3.83358
G1 X115.283 Y125.317 E3.84963
G1 X114.647 Y125.459 E3.87997
G1 X114.287 Y125.531 E3.89707
G1 X113.727 Y125.629 E3.92354
G1 X113.517 Y125.662 E3.93344
G1 X113.042 Y125.73 E3.95578
G1 X112.816 Y125.759 E3.96639
G1 X112.34 Y125.813 E3.9887
G1 X112.055 Y125.84 E4.00203
G1 X111.544 Y125.879 E4.02589
G1 X111.314 Y125.893 E4.03662
G1 X110.87 Y125.913 E4.05732
G1 X110.353 Y125.927 E4.0814
G1 X109.887 Y125.928 E4.1031
G1 X109.58 Y125.923 E4.11739
G1 X109.069 Y125.906 E4.1412
G1 X108.655 Y125.885 E4.1605
G1 X105.998 Y125.721 E4.28446
G1 X105.215 Y125.675 E4.32098
G1 X104.604 Y125.635 E4.34949
G1 X104.121 Y125.608 E4.37202
G1 X101.646 Y125.454 E4.48749
G1 X101.17 Y125.427 E4.50969
G1 X98.709 Y125.276 E4.6245
G1 X98.181 Y125.246 E4.64912
G1 X87.546 Y124.597 E5.14526
G1 X85.277 Y124.457 E5.25111
G1 X84.842 Y124.418 E5.27145
G1 X84.588 Y124.388 E5.28336
G1 X83.81 Y124.256 E5.3201
G1 X83.357 Y124.141 E5.34186
G1 X83.067 Y124.058 E5.35591
G1 X82.07 Y123.698 E5.40527
G1 X81.886 Y123.617 E5.41463
G1 X80.929 Y123.113 E5.46499
G1 X80.717 Y122.982 E5.4766
G1 X79.803 Y122.322 E5.52909
G1 X79.629 Y122.176 E5.53967
G1 X78.901 Y121.48 E5.58657
G1 X78.753 Y121.319 E5.59675
G1 X78.059 Y120.446 E5.64868
G1 X77.944 Y120.278 E5.65816
G1 X77.466 Y119.484 E5.70132
G1 X77.361 Y119.283 E5.71188
G1 X76.93 Y118.296 E5.76203
G1 X76.826 Y118.005 E5.77642
G1 X76.598 Y117.249 E5.81318
G1 X76.51 Y116.845 E5.83244
G1 X76.462 Y116.594 E5.84434
G1 X76.338 Y115.612 E5.89043
G1 X76.322 Y115.354 E5.90246
G1 X76.307 Y114.807 E5.92794
G1 X76.309 Y114.562 E5.93935
G1 X76.307 Y105.119 E6.37906
G1 X76.323 Y104.614 E6.40258
G1 X76.338 Y104.382 E6.41341
G1 X76.457 Y103.439 E6.45767
G1 X76.507 Y103.174 E6.47022
G1 X76.76 Y102.189 E6.51758
G1 X76.842 Y101.939 E6.52983
G1 X77.285 Y100.868 E6.5838
G1 X77.384 Y100.671 E6.59406
G1 X77.863 Y99.846 E6.63849
G1 X77.991 Y99.654 E6.64923
G1 X78.687 Y98.759 E6.70202
G1 X78.842 Y98.587 E6.71281
G1 X79.603 Y97.85 E6.76213
G1 X79.809 Y97.676 E6.77469
G0 F6000 X80.067 Y97.982
G1 F1200 X80.68 Y97.517 E6.81052
G1 X81.02 Y97.298 E6.82935
G1 X81.214 Y97.181 E6.8399
G1 X82.117 Y96.718 E6.88715
G1 X82.329 Y96.627 E6.89789
G1 X83.315 Y96.284 E6.9465
G1 X83.57 Y96.215 E6.95881
G1 X84.603 Y96.013 E7.00782
G1 X84.856 Y95.982 E7.01969
G1 X85.306 Y95.941 E7.04073
G1 X108.979 Y94.498 E8.14509
G1 X109.431 Y94.481 E8.16615
G1 X109.739 Y94.474 E8.18049
G1 X109.955 Y94.472 E8.19055
G1 X110.586 Y94.478 E8.21994
G1 X110.887 Y94.487 E8.23396
G1 X111.526 Y94.521 E8.26375
G1 X111.711 Y94.533 E8.27239
G1 X112.006 Y94.557 E8.28617
G1 X112.603 Y94.618 E8.31411
G1 X112.862 Y94.649 E8.32626
G1 X113.473 Y94.736 E8.355
G1 X113.654 Y94.764 E8.36352
G1 X114.041 Y94.83 E8.38181
G1 X114.29 Y94.881 E8.39364
G1 X114.538 Y94.928 E8.40539
G1 X114.979 Y95.023 E8.4264
G1 X115.527 Y95.154 E8.45264
G1 X115.973 Y95.272 E8.47412
G1 X116.493 Y95.421 E8.49931
G1 X116.708 Y95.487 E8.50978
G1 X117.2 Y95.647 E8.53387
G1 X117.453 Y95.733 E8.54631
G1 X117.969 Y95.921 E8.57188
G1 X118.355 Y96.072 E8.59118
G1 X118.879 Y96.29 E8.61761
G1 X119.283 Y96.468 E8.63817
G1 X119.664 Y96.645 E8.65773
G1 X119.847 Y96.733 E8.66718
G1 X120.286 Y96.953 E8.69005
G1 X120.512 Y97.071 E8.70192
G1 X120.691 Y97.168 E8.7114
G1 X121.159 Y97.429 E8.73635
G1 X121.378 Y97.556 E8.74814
G1 X121.925 Y97.888 E8.77794
G1 X122.256 Y98.098 E8.79619
G1 X122.497 Y98.258 E8.80966
G1 X122.959 Y98.577 E8.8358
G1 X123.146 Y98.71 E8.84649
G1 X123.485 Y98.96 E8.8661
G1 X123.645 Y99.082 E8.87547
G1 X123.991 Y99.352 E8.89591
G1 X124.199 Y99.52 E8.90836
G1 X124.643 Y99.893 E8.93536
G1 X124.787 Y100.021 E8.94433
G1 X124.978 Y100.189 E8.95617
G1 X125.162 Y100.356 E8.96774
G1 X125.586 Y100.755 E8.99485
G1 X125.797 Y100.961 E9.00859
G1 X126.21 Y101.384 E9.03611
G1 X126.477 Y101.669 E9.0543
G1 X126.765 Y101.986 E9.07424
G1 X126.939 Y102.184 E9.08652
G1 X127.136 Y102.417 E9.10072
G1 X127.249 Y102.551 E9.10888
G1 X127.609 Y102.996 E9.13554
G1 X128.018 Y103.532 E9.16693
G1 X128.257 Y103.862 E9.18591
G1 X128.374 Y104.028 E9.19536
G1 X128.633 Y104.407 E9.21674
G1 X128.738 Y104.565 E9.22557
G1 X128.919 Y104.845 E9.2411
G1 X129.039 Y105.038 E9.25168
G1 X129.209 Y105.32 E9.26701
G1 X129.37 Y105.593 E9.28177
G1 X129.712 Y106.245 E9.31605
G1 X129.805 Y106.446 E9.32636
G1 X130.091 Y107.16 E9.36218
G1 X130.296 Y107.875 E9.39681
G1 X130.367 Y108.18 E9.4114
G1 X130.503 Y108.937 E9.44721
G1 X130.56 Y109.83 E9.48888
G1 X130.561 Y110.099 E9.5014
G1 X130.524 Y110.868 E9.53725
G1 X130.445 Y111.432 E9.56377
G1 X130.409 Y111.633 E9.57328
G1 X130.234 Y112.382 E9.60909
G1 X130.106 Y112.784 E9.62874
G1 X130.03 Y113 E9.6394
G1 X129.639 Y113.909 E9.68548
G1 X129.567 Y114.05 E9.69285
G1 X129.356 Y114.436 E9.71333
G1 X129.229 Y114.652 E9.725
G1 X129 Y115.024 E9.74534
G1 X128.809 Y115.325 E9.76194
G1 X128.537 Y115.736 E9.78489
G1 X128.301 Y116.077 E9.8042
G1 X128.021 Y116.465 E9.82648
G1 X127.833 Y116.716 E9.84108
G1 X127.524 Y117.113 E9.86451
G1 X127.381 Y117.291 E9.87514
G1 X127.024 Y117.718 E9.90106
G1 X126.674 Y118.116 E9.92574
G1 X126.389 Y118.422 E9.94521
G1 X126.172 Y118.656 E9.96007
G1 X125.933 Y118.902 E9.97604
G1 X125.639 Y119.195 E9.99537
G1 X125.329 Y119.49 E10.01529
G1 X124.963 Y119.825 E10.0384
G1 X124.59 Y120.153 E10.06152
G1 X124.424 Y120.294 E10.07167
G1 X124.102 Y120.559 E10.09108
G1 X123.947 Y120.683 E10.10033
G1 X123.511 Y121.02 E10.12599
G1 X123.115 Y121.313 E10.14892
G1 X122.776 Y121.553 E10.16827
G1 X122.457 Y121.769 E10.1862
G1 X122.16 Y121.964 E10.20275
G1 X121.962 Y122.089 E10.21365
G1 X121.516 Y122.362 E10.238
G1 X121.313 Y122.482 E10.24898
G1 X120.872 Y122.733 E10.27261
G1 X120.628 Y122.867 E10.28557
G1 X120.196 Y123.092 E10.30825
G1 X119.974 Y123.204 E10.31983
G1 X119.429 Y123.465 E10.34797
G1 X119.172 Y123.582 E10.36112
G1 X118.757 Y123.764 E10.38222
G1 X118.427 Y123.9 E10.39884
G1 X118.037 Y124.054 E10.41836
G1 X117.579 Y124.223 E10.44109
G1 X117.254 Y124.336 E10.45712
G1 X116.715 Y124.511 E10.4835
G1 X116.363 Y124.619 E10.50065
G1 X116.138 Y124.683 E10.51154
G1 X115.521 Y124.848 E10.54128
G1 X115.196 Y124.927 E10.55685
G1 X114.743 Y125.029 E10.57848
G1 X114.208 Y125.138 E10.6039
G1 X114.004 Y125.176 E10.61356
G1 X113.659 Y125.235 E10.62986
G1 X113.461 Y125.266 E10.63919
G1 X112.986 Y125.334 E10.66154
G1 X112.771 Y125.362 E10.67163
G1 X112.295 Y125.416 E10.69394
G1 X112.024 Y125.442 E10.70662
G1 X111.513 Y125.481 E10.73048
G1 X111.295 Y125.494 E10.74065
G1 X110.857 Y125.513 E10.76106
G1 X110.351 Y125.527 E10.78463
G1 X109.892 Y125.528 E10.80601
G1 X109.593 Y125.524 E10.81993
G1 X109.089 Y125.507 E10.84341
G1 X108.68 Y125.486 E10.86248
G1 X106.021 Y125.322 E10.98653
G1 X105.244 Y125.276 E11.02277
G1 X104.638 Y125.237 E11.05105
G1 X104.146 Y125.209 E11.074
G1 X101.699 Y125.057 E11.18816
G1 X100.451 Y124.983 E11.24637
G1 X100.203 Y124.966 E11.25795
G1 X99.724 Y124.939 E11.28029
G1 X98.687 Y124.874 E11.32867
G1 X87.57 Y124.198 E11.84728
G1 X85.301 Y124.058 E11.95314
G1 X84.889 Y124.021 E11.9724
G1 X84.635 Y123.991 E11.98431
G1 X83.877 Y123.861 E12.02012
G1 X83.467 Y123.756 E12.03982
G1 X83.177 Y123.673 E12.05387
G1 X82.232 Y123.332 E12.10065
G1 X82.048 Y123.251 E12.11001
G1 X81.139 Y122.773 E12.15783
G1 X80.927 Y122.642 E12.16944
G1 X80.06 Y122.016 E12.21923
G1 X79.886 Y121.87 E12.22981
G1 X79.195 Y121.209 E12.27434
G1 X79.047 Y121.048 E12.28452
G1 X78.389 Y120.22 E12.33377
G1 X78.274 Y120.052 E12.34325
G1 X77.821 Y119.298 E12.38421
G1 X77.716 Y119.097 E12.39476
G1 X77.307 Y118.161 E12.44233
G1 X77.203 Y117.87 E12.45672
G1 X76.903 Y116.77 E12.50981
G1 X76.855 Y116.519 E12.52171
G1 X76.737 Y115.587 E12.56545
G1 X76.721 Y115.329 E12.57749
G1 X76.707 Y114.811 E12.60162
G1 X76.709 Y114.566 E12.61303
G1 X76.707 Y105.119 E13.05292
G1 X76.722 Y104.64 E13.07523
G1 X76.737 Y104.408 E13.08606
G1 X76.85 Y103.513 E13.12807
G1 X76.9 Y103.248 E13.14062
G1 X77.141 Y102.314 E13.18554
G1 X77.223 Y102.064 E13.19779
G1 X77.642 Y101.047 E13.24901
G1 X77.741 Y100.85 E13.25927
G1 X78.196 Y100.068 E13.3014
G1 X78.324 Y99.876 E13.31215
G1 X78.984 Y99.027 E13.36222
G1 X79.139 Y98.855 E13.373
G1 X79.861 Y98.156 E13.41979
G1 X80.067 Y97.982 E13.43235
G0 F6000 X80.325 Y98.287
G1 F1200 X81.227 Y97.641 E13.48401
G1 X81.421 Y97.524 E13.49456
G1 X82.275 Y97.086 E13.53925
G1 X82.487 Y96.995 E13.54999
G1 X83.42 Y96.67 E13.596
G1 X83.675 Y96.601 E13.6083
G1 X84.652 Y96.41 E13.65465
G1 X84.905 Y96.379 E13.66652
G1 X85.33 Y96.34 E13.6864
G1 X108.996 Y94.898 E14.79043
G1 X109.44 Y94.881 E14.81112
G1 X109.748 Y94.874 E14.82546
G1 X109.953 Y94.872 E14.83501
G1 X110.411 Y94.875 E14.85634
G1 X110.875 Y94.887 E14.87795
G1 X111.059 Y94.895 E14.88653
G1 X111.504 Y94.92 E14.90728
G1 X111.974 Y94.956 E14.92923
G1 X112.447 Y95.003 E14.95136
G1 X112.815 Y95.047 E14.96862
G1 X112.989 Y95.07 E14.97679
G1 X113.416 Y95.132 E14.99688
G1 X113.587 Y95.159 E15.00494
G1 X113.974 Y95.225 E15.02323
G1 X114.596 Y95.349 E15.05276
G1 X114.894 Y95.414 E15.06696
G1 X115.432 Y95.543 E15.09272
G1 X115.605 Y95.587 E15.10103
G1 X115.992 Y95.693 E15.11972
G1 X116.382 Y95.806 E15.13863
G1 X116.585 Y95.868 E15.14851
G1 X117.071 Y96.025 E15.17229
G1 X117.324 Y96.111 E15.18473
G1 X117.825 Y96.294 E15.20957
G1 X118.202 Y96.441 E15.22841
G1 X118.719 Y96.656 E15.25448
G1 X118.958 Y96.76 E15.26662
G1 X119.495 Y97.008 E15.29416
G1 X119.669 Y97.091 E15.30314
G1 X120.101 Y97.308 E15.32565
G1 X120.496 Y97.517 E15.34646
G1 X120.964 Y97.778 E15.37141
G1 X121.172 Y97.899 E15.38262
G1 X121.711 Y98.226 E15.41197
G1 X122.042 Y98.436 E15.43023
G1 X122.269 Y98.587 E15.44292
G1 X122.731 Y98.906 E15.46906
G1 X122.909 Y99.032 E15.47922
G1 X123.248 Y99.282 E15.49883
G1 X123.399 Y99.397 E15.50767
G1 X123.745 Y99.667 E15.52811
G1 X123.942 Y99.826 E15.53989
G1 X124.386 Y100.199 E15.5669
G1 X124.523 Y100.321 E15.57544
G1 X124.714 Y100.489 E15.58728
G1 X124.888 Y100.647 E15.59823
G1 X125.312 Y101.046 E15.62534
G1 X125.511 Y101.241 E15.63831
G1 X125.919 Y101.659 E15.66551
G1 X126.181 Y101.938 E15.68333
G1 X126.469 Y102.255 E15.70327
G1 X126.633 Y102.442 E15.71486
G1 X126.83 Y102.675 E15.72906
G1 X126.938 Y102.802 E15.73683
G1 X127.298 Y103.247 E15.76348
G1 X127.694 Y103.767 E15.79391
G1 X127.933 Y104.097 E15.81289
G1 X128.043 Y104.253 E15.82177
G1 X128.302 Y104.632 E15.84315
G1 X128.402 Y104.782 E15.85154
G1 X128.583 Y105.062 E15.86707
G1 X128.697 Y105.244 E15.87707
G1 X128.865 Y105.523 E15.89223
G1 X129.026 Y105.796 E15.90699
G1 X129.349 Y106.413 E15.93942
G1 X129.442 Y106.614 E15.94973
G1 X129.719 Y107.308 E15.98453
G1 X129.907 Y107.966 E16.01639
G1 X129.978 Y108.271 E16.03098
G1 X130.108 Y109.008 E16.06582
G1 X130.16 Y109.832 E16.10427
G1 X130.161 Y110.101 E16.11679
G1 X130.124 Y110.848 E16.15162
G1 X130.051 Y111.361 E16.17575
G1 X130.015 Y111.562 E16.18526
G1 X129.844 Y112.29 E16.22008
G1 X129.728 Y112.651 E16.23773
G1 X129.652 Y112.867 E16.2484
G1 X129.283 Y113.727 E16.29197
G1 X129.211 Y113.868 E16.29934
G1 X129.011 Y114.233 E16.31872
G1 X128.797 Y114.594 E16.33827
G1 X128.54 Y115.003 E16.36076
G1 X128.283 Y115.397 E16.38266
G1 X128.063 Y115.72 E16.40086
G1 X127.762 Y116.142 E16.425
G1 X127.517 Y116.471 E16.4441
G1 X127.208 Y116.868 E16.46752
