;FLAVOR:Marlin
;TIME:4014
;Filament used: 3.30108m
;Layer height: 0.28
;MINX:49.708
;MINY:92.2
;MINZ:0.28
;MAXX:170.3
;MAXY:127.8
;MAXZ:8.12
;Generated with Cura_SteamEngine 4.13.1
M140 S60
M105
M190 S60
M104 S200
M105
M109 S200
M82 ;absolute extrusion mode
; Ender 3 Custom Start G-code
G92 E0 ; Reset Extruder
G28 ; Home all axes
G1 Z2.0 F3000 ; Move Z Axis up little to prevent scratching of Heat Bed
G1 X0.1 Y20 Z0.3 F5000.0 ; Move to start position
G1 X0.1 Y200.0 Z0.3 F1500.0 E15 ; Draw the first line
G1 X0.4 Y200.0 Z0.3 F5000.0 ; Move to side a little
G1 X0.4 Y20 Z0.3 F1500.0 E30 ; Draw the second line
G92 E0 ; Reset Extruder
G1 Z2.0 F3000 ; Move Z Axis up little to prevent scratching of Heat Bed
G1 X5 Y20 Z0.3 F5000.0 ; Move over to prevent blob squish
G92 E0
G92 E0
G1 F1500 E-6.5
;LAYER_COUNT:29
;LAYER:0
M107
G0 F6000 X57.328 Y95.399 Z0.28
;TYPE:SKIRT
G1 F1500 E0
G1 F1200 X58.08 Y94.961 E0.04052
G1 X60.869 Y93.54 E0.18628
G1 X61.59 Y93.218 E0.22304
G1 X62.34 Y92.97 E0.25983
G1 X63.189 Y92.786 E0.30028
G1 X66.28 Y92.296 E0.446
G1 X67.065 Y92.212 E0.48277
G1 X67.501 Y92.2 E0.50308
G1 X162.5 Y92.2 E4.92663
G1 X163.289 Y92.24 E4.96341
G1 X164.069 Y92.359 E5.00015
G1 X164.834 Y92.557 E5.03695
G1 X165.574 Y92.831 E5.07369
G1 X166.283 Y93.179 E5.11047
G1 X166.954 Y93.597 E5.14728
G1 X167.578 Y94.08 E5.18402
G1 X168.151 Y94.623 E5.22078
G1 X168.666 Y95.222 E5.25757
G1 X169.117 Y95.87 E5.29433
G1 X169.501 Y96.561 E5.33114
G1 X169.813 Y97.286 E5.36789
G1 X170.05 Y98.039 E5.40465
G1 X170.209 Y98.813 E5.44144
G1 X170.29 Y99.598 E5.47819
G1 X170.3 Y100 E5.49691
G1 X170.3 Y120 E6.4282
G1 X170.26 Y120.789 E6.46498
G1 X170.141 Y121.569 E6.50173
G1 X169.943 Y122.334 E6.53852
G1 X169.669 Y123.074 E6.57526
G1 X169.321 Y123.783 E6.61204
G1 X168.903 Y124.454 E6.64885
G1 X168.42 Y125.078 E6.6856
G1 X167.877 Y125.651 E6.72235
G1 X167.278 Y126.166 E6.75914
G1 X166.63 Y126.617 E6.7959
G1 X165.939 Y127.001 E6.83271
G1 X165.214 Y127.313 E6.86946
G1 X164.461 Y127.55 E6.90622
G1 X163.687 Y127.709 E6.94301
G1 X162.902 Y127.79 E6.97976
G1 X162.5 Y127.8 E6.99849
G1 X67.501 Y127.8 E11.42204
G1 X66.712 Y127.76 E11.45882
G1 X66.28 Y127.704 E11.47911
G1 X63.189 Y127.214 E11.62483
G1 X62.416 Y127.051 E11.66162
G1 X61.664 Y126.811 E11.69838
G1 X60.869 Y126.46 E11.73884
G1 X58.08 Y125.039 E11.88459
G1 X57.395 Y124.645 E11.92139
G1 X56.754 Y124.184 E11.95816
G1 X56.106 Y123.604 E11.99865
G1 X53.896 Y121.394 E12.14418
G1 X53.366 Y120.808 E12.18097
G1 X52.899 Y120.172 E12.21772
G1 X52.461 Y119.42 E12.25824
G1 X51.04 Y116.631 E12.40399
G1 X50.718 Y115.91 E12.44076
G1 X50.47 Y115.16 E12.47754
G1 X50.286 Y114.312 E12.51795
G1 X49.796 Y111.222 E12.66363
G1 X49.712 Y110.436 E12.70044
G1 X49.708 Y109.647 E12.73718
G1 X49.796 Y108.778 E12.77785
G1 X50.286 Y105.688 E12.92353
G1 X50.449 Y104.916 E12.96027
G1 X50.69 Y104.163 E12.99708
G1 X51.04 Y103.369 E13.03749
G1 X52.461 Y100.58 E13.18324
G1 X52.855 Y99.895 E13.22004
G1 X53.316 Y99.254 E13.2568
G1 X53.896 Y98.606 E13.2973
G1 X56.106 Y96.396 E13.44283
G1 X56.692 Y95.866 E13.47962
G1 X57.328 Y95.399 E13.51636
G0 F6000 X57.582 Y95.711
G1 F1200 X58.262 Y95.317 E13.55296
G1 X61.051 Y93.896 E13.69871
G1 X61.753 Y93.583 E13.7345
G1 X62.484 Y93.345 E13.7703
G1 X63.251 Y93.181 E13.80682
G1 X66.342 Y92.691 E13.95255
G1 X67.107 Y92.61 E13.98837
G1 X67.501 Y92.6 E14.00672
G1 X162.5 Y92.6 E18.43027
G1 X163.268 Y92.64 E18.46608
G1 X164.028 Y92.759 E18.5019
G1 X164.771 Y92.957 E18.5377
G1 X165.49 Y93.231 E18.57353
G1 X166.176 Y93.578 E18.60933
G1 X166.823 Y93.994 E18.64515
G1 X167.423 Y94.475 E18.68095
G1 X167.97 Y95.016 E18.71678
G1 X168.458 Y95.611 E18.75261
G1 X168.881 Y96.253 E18.78841
G1 X169.236 Y96.936 E18.82425
G1 X169.517 Y97.651 E18.86003
G1 X169.723 Y98.393 E18.89588
G1 X169.851 Y99.151 E18.93168
G1 X169.9 Y100 E18.97128
G1 X169.9 Y120 E19.90256
G1 X169.86 Y120.768 E19.93837
G1 X169.741 Y121.528 E19.97419
G1 X169.543 Y122.271 E20.01
G1 X169.269 Y122.99 E20.04582
G1 X168.922 Y123.676 E20.08162
G1 X168.506 Y124.323 E20.11744
G1 X168.025 Y124.923 E20.15325
G1 X167.484 Y125.47 E20.18907
G1 X166.889 Y125.958 E20.2249
G1 X166.247 Y126.381 E20.2607
G1 X165.564 Y126.736 E20.29654
G1 X164.849 Y127.017 E20.33232
G1 X164.107 Y127.223 E20.36817
G1 X163.349 Y127.351 E20.40397
G1 X162.5 Y127.4 E20.44357
G1 X67.501 Y127.4 E24.86712
G1 X66.733 Y127.36 E24.90293
G1 X66.342 Y127.309 E24.92129
G1 X63.251 Y126.819 E25.06702
G1 X62.499 Y126.659 E25.10282
G1 X61.767 Y126.422 E25.13864
G1 X61.051 Y126.104 E25.17512
G1 X58.262 Y124.683 E25.32088
G1 X57.595 Y124.298 E25.35674
G1 X56.973 Y123.847 E25.39251
G1 X56.388 Y123.322 E25.42911
G1 X54.178 Y121.112 E25.57465
G1 X53.664 Y120.54 E25.61045
G1 X53.211 Y119.918 E25.64628
G1 X52.817 Y119.238 E25.68288
G1 X51.396 Y116.449 E25.82863
G1 X51.083 Y115.747 E25.86442
G1 X50.845 Y115.016 E25.90022
G1 X50.681 Y114.249 E25.93674
G1 X50.191 Y111.159 E26.08242
G1 X50.111 Y110.394 E26.11824
G1 X50.11 Y109.625 E26.15405
G1 X50.191 Y108.841 E26.19075
G1 X50.681 Y105.751 E26.33643
G1 X50.841 Y104.999 E26.37223
G1 X51.078 Y104.267 E26.40805
G1 X51.396 Y103.551 E26.44454
G1 X52.817 Y100.762 E26.59029
G1 X53.202 Y100.095 E26.62615
G1 X53.653 Y99.473 E26.66192
G1 X54.178 Y98.888 E26.69852
G1 X56.388 Y96.678 E26.84406
G1 X56.96 Y96.164 E26.87987
G1 X57.582 Y95.711 E26.9157
G0 F6000 X57.834 Y96.024
G1 F1200 X58.443 Y95.674 E26.9484
G1 X61.232 Y94.253 E27.09416
G1 X61.916 Y93.949 E27.12901
G1 X62.628 Y93.721 E27.16382
G1 X63.314 Y93.576 E27.19647
G1 X66.405 Y93.086 E27.3422
G1 X67.501 Y93 E27.39339
G1 X162.5 Y93 E31.81694
G1 X163.247 Y93.04 E31.85177
G1 X163.985 Y93.159 E31.88658
G1 X164.707 Y93.357 E31.92144
G1 X165.403 Y93.63 E31.95625
G1 X166.066 Y93.977 E31.9911
G1 X166.689 Y94.392 E32.02596
G1 X167.263 Y94.871 E32.06077
G1 X167.784 Y95.408 E32.09561
G1 X168.243 Y95.998 E32.13041
G1 X168.638 Y96.634 E32.16528
G1 X168.962 Y97.308 E32.2001
G1 X169.212 Y98.013 E32.23493
G1 X169.386 Y98.741 E32.26978
G1 X169.481 Y99.483 E32.30462
G1 X169.5 Y100 E32.32871
G1 X169.5 Y120 E33.25999
G1 X169.46 Y120.747 E33.29482
G1 X169.341 Y121.485 E33.32963
G1 X169.143 Y122.207 E33.36449
G1 X168.87 Y122.903 E33.3993
G1 X168.523 Y123.566 E33.43415
G1 X168.108 Y124.189 E33.469
G1 X167.629 Y124.763 E33.50382
G1 X167.092 Y125.284 E33.53866
G1 X166.502 Y125.743 E33.57346
G1 X165.866 Y126.138 E33.60833
G1 X165.192 Y126.462 E33.64315
G1 X164.487 Y126.712 E33.67798
G1 X163.759 Y126.886 E33.71283
G1 X163.017 Y126.981 E33.74766
G1 X162.5 Y127 E33.77175
G1 X67.501 Y127 E38.19531
G1 X66.405 Y126.914 E38.2465
G1 X63.314 Y126.424 E38.39222
G1 X62.582 Y126.267 E38.42708
G1 X61.872 Y126.034 E38.46188
G1 X61.232 Y125.747 E38.49454
G1 X58.443 Y124.326 E38.64029
G1 X57.796 Y123.951 E38.67511
G1 X57.192 Y123.51 E38.70994
G1 X56.671 Y123.039 E38.74264
G1 X54.461 Y120.829 E38.88817
G1 X53.961 Y120.272 E38.92303
G1 X53.524 Y119.666 E38.95782
G1 X53.174 Y119.057 E38.99052
G1 X51.753 Y116.268 E39.13628
G1 X51.449 Y115.584 E39.17113
G1 X51.221 Y114.872 E39.20594
G1 X51.076 Y114.186 E39.23859
G1 X50.586 Y111.096 E39.38427
G1 X50.509 Y110.352 E39.4191
G1 X50.511 Y109.604 E39.45393
G1 X50.586 Y108.904 E39.48671
G1 X51.076 Y105.814 E39.63239
G1 X51.233 Y105.082 E39.66725
G1 X51.466 Y104.372 E39.70205
G1 X51.753 Y103.732 E39.73471
G1 X53.174 Y100.943 E39.88046
G1 X53.549 Y100.296 E39.91528
G1 X53.99 Y99.692 E39.95011
G1 X54.461 Y99.171 E39.98281
G1 X56.671 Y96.961 E40.12834
G1 X57.228 Y96.461 E40.1632
G1 X57.834 Y96.024 E40.19799
G0 F6000 X58.086 Y96.337
G1 F1200 X58.625 Y96.03 E40.22687
G1 X61.414 Y94.609 E40.37262
G1 X62.078 Y94.316 E40.40642
G1 X62.771 Y94.097 E40.44026
G1 X63.377 Y93.971 E40.46908
G1 X66.468 Y93.481 E40.61481
G1 X67.501 Y93.4 E40.66306
G1 X162.5 Y93.4 E45.08661
G1 X163.225 Y93.44 E45.12042
G1 X163.942 Y93.559 E45.15426
G1 X164.641 Y93.757 E45.18809
G1 X165.314 Y94.03 E45.22191
G1 X165.953 Y94.375 E45.25572
G1 X166.55 Y94.789 E45.28955
G1 X167.098 Y95.265 E45.32335
G1 X167.591 Y95.799 E45.35719
G1 X168.021 Y96.384 E45.391
G1 X168.385 Y97.013 E45.42484
G1 X168.678 Y97.678 E45.45868
G1 X168.896 Y98.371 E45.4925
G1 X169.036 Y99.083 E45.52629
G1 X169.1 Y100 E45.5691
G1 X169.1 Y120 E46.50038
G1 X169.06 Y120.725 E46.53419
G1 X168.941 Y121.442 E46.56803
G1 X168.743 Y122.141 E46.60186
G1 X168.47 Y122.814 E46.63568
G1 X168.125 Y123.453 E46.66949
G1 X167.711 Y124.05 E46.70332
G1 X167.235 Y124.598 E46.73712
G1 X166.701 Y125.091 E46.77096
G1 X166.116 Y125.521 E46.80477
G1 X165.487 Y125.885 E46.83861
G1 X164.822 Y126.178 E46.87245
G1 X164.129 Y126.396 E46.90628
G1 X163.417 Y126.536 E46.94007
G1 X162.5 Y126.6 E46.98287
G1 X67.501 Y126.6 E51.40642
G1 X66.468 Y126.519 E51.45467
G1 X63.377 Y126.029 E51.6004
G1 X62.667 Y125.876 E51.63421
G1 X61.978 Y125.645 E51.66805
G1 X61.414 Y125.391 E51.69686
G1 X58.625 Y123.97 E51.84261
G1 X57.997 Y123.605 E51.87643
G1 X57.413 Y123.173 E51.91026
G1 X56.954 Y122.756 E51.93913
G1 X54.744 Y120.546 E52.08466
G1 X54.26 Y120.005 E52.11846
G1 X53.837 Y119.414 E52.15231
G1 X53.53 Y118.875 E52.18119
G1 X52.109 Y116.086 E52.32694
G1 X51.816 Y115.422 E52.36074
G1 X51.597 Y114.729 E52.39458
G1 X51.471 Y114.124 E52.42336
G1 X50.981 Y111.034 E52.56904
G1 X50.907 Y110.311 E52.60288
G1 X50.913 Y109.585 E52.63669
G1 X50.981 Y108.966 E52.66568
G1 X51.471 Y105.876 E52.81136
G1 X51.625 Y105.166 E52.84519
G1 X51.855 Y104.477 E52.87902
G1 X52.109 Y103.914 E52.90778
G1 X53.53 Y101.125 E53.05353
G1 X53.895 Y100.497 E53.08735
G1 X54.327 Y99.913 E53.12118
G1 X54.744 Y99.454 E53.15005
G1 X56.954 Y97.244 E53.29558
G1 X57.495 Y96.76 E53.32939
G1 X58.086 Y96.337 E53.36323
G0 F6000 X58.337 Y96.652
G1 F1200 X58.806 Y96.387 E53.38831
G1 X61.595 Y94.966 E53.53406
G1 X62.24 Y94.682 E53.56688
G1 X62.912 Y94.474 E53.59964
G1 X63.439 Y94.366 E53.62468
G1 X66.53 Y93.876 E53.77041
G1 X67.501 Y93.8 E53.81576
G1 X162.5 Y93.8 E58.23932
G1 X163.203 Y93.84 E58.2721
G1 X163.897 Y93.959 E58.30489
G1 X164.572 Y94.157 E58.33765
G1 X165.221 Y94.429 E58.37041
G1 X165.835 Y94.774 E58.40321
G1 X166.406 Y95.185 E58.43597
G1 X166.927 Y95.659 E58.46876
G1 X167.391 Y96.189 E58.50156
G1 X167.791 Y96.768 E58.53433
G1 X168.123 Y97.389 E58.56712
G1 X168.383 Y98.043 E58.59989
G1 X168.567 Y98.723 E58.6327
G1 X168.673 Y99.419 E58.66548
G1 X168.7 Y100 E58.69256
G1 X168.7 Y120 E59.62385
G1 X168.66 Y120.703 E59.65663
G1 X168.541 Y121.397 E59.68942
G1 X168.343 Y122.072 E59.72218
G1 X168.071 Y122.721 E59.75494
G1 X167.726 Y123.335 E59.78774
G1 X167.315 Y123.906 E59.8205
G1 X166.841 Y124.427 E59.85329
G1 X166.311 Y124.891 E59.88609
G1 X165.732 Y125.291 E59.91886
G1 X165.111 Y125.623 E59.95165
G1 X164.457 Y125.883 E59.98442
G1 X163.777 Y126.067 E60.01723
G1 X163.081 Y126.173 E60.05001
G1 X162.5 Y126.2 E60.07709
G1 X67.501 Y126.2 E64.50064
G1 X66.53 Y126.124 E64.546
G1 X63.439 Y125.634 E64.69172
G1 X62.751 Y125.484 E64.72451
G1 X62.085 Y125.257 E64.75727
G1 X61.595 Y125.034 E64.78234
G1 X58.806 Y123.613 E64.9281
G1 X58.198 Y123.259 E64.96086
G1 X57.634 Y122.837 E64.99366
G1 X57.237 Y122.473 E65.01874
G1 X55.027 Y120.263 E65.16427
G1 X54.558 Y119.738 E65.19705
G1 X54.152 Y119.163 E65.22982
G1 X53.887 Y118.694 E65.25491
G1 X52.466 Y115.905 E65.40066
G1 X52.182 Y115.26 E65.43348
G1 X51.974 Y114.588 E65.46623
G1 X51.867 Y114.061 E65.49127
G1 X51.377 Y110.971 E65.63695
G1 X51.306 Y110.271 E65.66972
G1 X51.315 Y109.567 E65.7025
G1 X51.377 Y109.029 E65.72772
G1 X51.867 Y105.939 E65.8734
G1 X52.016 Y105.251 E65.90618
G1 X52.243 Y104.585 E65.93894
G1 X52.466 Y104.095 E65.96401
G1 X53.887 Y101.306 E66.10976
G1 X54.241 Y100.698 E66.14252
G1 X54.663 Y100.134 E66.17532
G1 X55.027 Y99.737 E66.2004
G1 X57.237 Y97.527 E66.34593
G1 X57.762 Y97.058 E66.37871
G1 X58.337 Y96.652 E66.41149
G0 F6000 X58.587 Y96.968
G1 F1200 X58.988 Y96.743 E66.4329
G1 X61.777 Y95.322 E66.57865
G1 X62.401 Y95.049 E66.61037
G1 X63.052 Y94.851 E66.64205
G1 X63.502 Y94.762 E66.66341
G1 X66.593 Y94.272 E66.80914
G1 X67.501 Y94.2 E66.85155
G1 X162.5 Y94.2 E71.2751
G1 X163.18 Y94.24 E71.30682
G1 X163.85 Y94.359 E71.33851
G1 X164.502 Y94.556 E71.37022
G1 X165.126 Y94.828 E71.40192
G1 X165.714 Y95.172 E71.43364
G1 X166.258 Y95.582 E71.46536
G1 X166.749 Y96.053 E71.49704
G1 X167.183 Y96.578 E71.52876
G1 X167.552 Y97.15 E71.56046
G1 X167.851 Y97.762 E71.59217
G1 X168.076 Y98.404 E71.62385
G1 X168.225 Y99.069 E71.65558
G1 X168.3 Y100 E71.69907
G1 X168.3 Y120 E72.63036
G1 X168.26 Y120.68 E72.66208
G1 X168.141 Y121.35 E72.69376
G1 X167.944 Y122.002 E72.72548
G1 X167.672 Y122.626 E72.75717
G1 X167.328 Y123.214 E72.7889
G1 X166.918 Y123.758 E72.82061
G1 X166.447 Y124.249 E72.8523
G1 X165.922 Y124.683 E72.88401
G1 X165.35 Y125.052 E72.91571
G1 X164.738 Y125.351 E72.94743
G1 X164.096 Y125.576 E72.9791
G1 X163.431 Y125.725 E73.01084
G1 X162.5 Y125.8 E73.05433
G1 X67.501 Y125.8 E77.47788
G1 X66.593 Y125.728 E77.52029
G1 X63.502 Y125.238 E77.66602
G1 X62.837 Y125.093 E77.69771
G1 X62.193 Y124.87 E77.72945
G1 X61.777 Y124.678 E77.75078
G1 X58.988 Y123.257 E77.89653
G1 X58.4 Y122.913 E77.92825
G1 X57.857 Y122.502 E77.95997
G1 X57.52 Y122.19 E77.98135
G1 X55.31 Y119.98 E78.12688
G1 X54.857 Y119.471 E78.15861
G1 X54.468 Y118.913 E78.19028
G1 X54.243 Y118.512 E78.21169
G1 X52.822 Y115.723 E78.35745
G1 X52.549 Y115.099 E78.38916
G1 X52.351 Y114.448 E78.42085
G1 X52.262 Y113.998 E78.44221
G1 X51.772 Y110.908 E78.58789
G1 X51.705 Y110.231 E78.61957
G1 X51.717 Y109.55 E78.65128
G1 X51.772 Y109.092 E78.67276
G1 X52.262 Y106.002 E78.81844
G1 X52.408 Y105.337 E78.85014
G1 X52.63 Y104.693 E78.88186
G1 X52.822 Y104.277 E78.9032
G1 X54.243 Y101.488 E79.04895
G1 X54.587 Y100.9 E79.08067
G1 X54.998 Y100.357 E79.11238
G1 X55.31 Y100.02 E79.13377
G1 X57.52 Y97.81 E79.2793
G1 X58.029 Y97.357 E79.31103
G1 X58.587 Y96.968 E79.3427
G0 F6000 X58.836 Y97.285
G1 F1200 X59.17 Y97.1 E79.36048
G1 X61.959 Y95.679 E79.50623
G1 X62.561 Y95.416 E79.53682
G1 X63.191 Y95.229 E79.56742
G1 X63.565 Y95.157 E79.58516
G1 X66.656 Y94.667 E79.73088
G1 X67.501 Y94.6 E79.77035
G1 X162.5 Y94.6 E84.19391
G1 X163.156 Y94.64 E84.22451
G1 X163.802 Y94.759 E84.25509
G1 X164.429 Y94.956 E84.2857
G1 X165.027 Y95.228 E84.31629
G1 X165.588 Y95.57 E84.34688
G1 X166.103 Y95.978 E84.37748
G1 X166.565 Y96.445 E84.40806
G1 X166.966 Y96.965 E84.43864
G1 X167.302 Y97.529 E84.46921
G1 X167.566 Y98.131 E84.49982
G1 X167.756 Y98.76 E84.53042
G1 X167.867 Y99.407 E84.56098
G1 X167.9 Y100 E84.58864
G1 X167.9 Y120 E85.51992
G1 X167.86 Y120.656 E85.55052
G1 X167.741 Y121.302 E85.58111
G1 X167.544 Y121.929 E85.61171
G1 X167.272 Y122.527 E85.6423
G1 X166.93 Y123.088 E85.6729
G1 X166.522 Y123.603 E85.70349
G1 X166.055 Y124.065 E85.73408
G1 X165.535 Y124.466 E85.76466
G1 X164.971 Y124.802 E85.79523
G1 X164.369 Y125.066 E85.82584
G1 X163.74 Y125.256 E85.85643
G1 X163.093 Y125.367 E85.887
G1 X162.5 Y125.4 E85.91465
G1 X67.501 Y125.4 E90.33821
G1 X66.656 Y125.333 E90.37768
G1 X63.565 Y124.843 E90.5234
G1 X62.923 Y124.701 E90.55402
G1 X62.304 Y124.482 E90.58459
G1 X61.959 Y124.321 E90.60232
G1 X59.17 Y122.9 E90.74807
G1 X58.603 Y122.567 E90.77869
G1 X58.082 Y122.168 E90.80925
G1 X57.803 Y121.907 E90.82704
G1 X55.593 Y119.697 E90.97257
G1 X55.157 Y119.205 E91.00318
G1 X54.785 Y118.664 E91.03375
G1 X54.6 Y118.33 E91.05153
G1 X53.179 Y115.541 E91.19729
G1 X52.916 Y114.939 E91.22788
G1 X52.729 Y114.309 E91.25848
G1 X52.657 Y113.936 E91.27616
G1 X52.167 Y110.846 E91.42185
G1 X52.103 Y110.192 E91.45244
G1 X52.12 Y109.535 E91.48305
G1 X52.167 Y109.154 E91.50092
G1 X52.657 Y106.064 E91.6466
G1 X52.799 Y105.423 E91.67718
G1 X53.018 Y104.803 E91.70779
G1 X53.179 Y104.459 E91.72548
G1 X54.6 Y101.67 E91.87123
G1 X54.933 Y101.103 E91.90185
G1 X55.332 Y100.582 E91.93241
G1 X55.593 Y100.303 E91.9502
G1 X57.803 Y98.093 E92.09573
G1 X58.295 Y97.657 E92.12634
G1 X58.836 Y97.285 E92.15691
G0 F6000 X58.56 Y97.958
G1 F1200 X59.351 Y97.456 E92.20054
G1 X62.14 Y96.035 E92.34629
G1 X62.72 Y95.784 E92.37572
G1 X63.627 Y95.552 E92.41931
G1 X66.718 Y95.062 E92.56504
G1 X67.501 Y95 E92.60161
G1 X162.5 Y95 E97.02516
G1 X163.131 Y95.04 E97.0546
G1 X163.752 Y95.159 E97.08404
G1 X164.352 Y95.356 E97.11345
